X:1
T:Carabobo, 11.8.11.8 D
T:Carabobo, 11.8.11.8 D
T:Hubert Platt Main, 1882
T:Public Domain Courtesy of the Cyber Hymnal™
C:Hubert Platt Main, 1882
Z:Public Domain
Z:Courtesy of the Cyber Hymnal™
%%score ( 1 2 ) ( 3 4 )
L:1/8
Q:1/4=135
M:3/4
K:Bb
V:1 treble 
V:2 treble 
V:3 bass 
V:4 bass 
V:1
 [DF]2 | [DF]2 [B,D]2 [CE]2 | [DF]2 [Fd]2 [^Fc]2 | [Gc]2 [GB]2 [EG]2 | [DF]4 [DF]2 | %5
 [DB]4 [EB][EB] | [FB]2 [Fc]2 [Fd]2 | [Fc]4 [_Ad]2 | [Ge]4 [Ed][Ec] | [Dd]2 [Fc]2 [FB]2 | %10
 [Gc]2 [GB]2 [EG]2 | [DF]4 F2 | [EG]2 [EB]3 [EG] | [DF]2 [Fd]2 [Ec]2 | [DB]4 [DB]2 | %15
 [Fc]3 [Fd] [Fe]2 | [Fd]4 [Fc][FB] | [Fc]3 [Fd] [Fe]2 | [Fd]4 [DF]2 | [DB]4 [EB][EB] | %20
 [FB]2 [Fc]2 [Fd]2 | [Fc]4 [_Ad]2 | [Ge]4 [Ed][Ec] | [Dd]2 [Fc]2 [FB]2 | [Gc]2 [GB]2 [EG]2 | %25
 [DF]4 [DF]2 | [EG]4 [FB][EG] | [DF]2 [DB]2 [Ec]2 | [DB]4 |] %29
V:2
 x2 | x6 | x6 | x6 | x6 | x6 | x6 | x6 | x6 | x6 | x6 | x4 F2 | x6 | x6 | x6 | x6 | x6 | x6 | x6 | %19
 x6 | x6 | x6 | x6 | x6 | x6 | x6 | x6 | x6 | x4 |] %29
V:3
 [B,,B,]2 | [B,,B,]2 [B,,F,]2 [B,,F,]2 | [B,,B,]2 [B,,B,]2 [D,B,]2 | [E,B,]2 [E,B,]2 [E,B,]2 | %4
 [B,,B,]4 [B,,B,]2 | [B,,F,]4 [E,G,][E,G,] | [D,B,]2 [C,A,]2 [B,,B,]2 | [F,A,]4 B,2 | %8
 [E,B,]4 [F,A,][F,A,] | [B,,B,]2 [C,A,]2 [D,B,]2 | [E,B,]2 [E,B,]2 [E,B,]2 | [B,,B,]4 [D,B,]2 | %12
 [E,B,]2 [E,G,]3 [E,B,] | [F,B,]2 [F,B,]2 [F,A,]2 | [B,,B,]4 [B,,B,]2 | [F,A,]3 [F,B,] [F,C]2 | %16
 B,4 [D,B,][D,B,] | [F,A,]3 [F,B,] [F,C]2 | B,4 [B,,B,]2 | [B,,F,]4 [E,G,][E,G,] | %20
 [D,B,]2 [C,A,]2 [B,,B,]2 | [F,A,]4 B,2 | [E,B,]4 [F,A,][F,A,] | [B,,B,]2 [C,A,]2 [D,B,]2 | %24
 [E,B,]2 [E,B,]2 [E,B,]2 | [B,,B,]4 [B,,B,]2 | [E,B,]4 [D,B,][E,B,] | [F,A,]2 F,2 [F,A,]2 | %28
 [B,,B,]4 |] %29
V:4
 x2 | x6 | x6 | x6 | x6 | x6 | x6 | x4 B,2 | x6 | x6 | x6 | x6 | x6 | x6 | x6 | x6 | B,4 x2 | x6 | %18
 B,4 x2 | x6 | x6 | x4 B,2 | x6 | x6 | x6 | x6 | x6 | x2 F,2 x2 | x4 |] %29

